build/flags/Rwanda.svg

<svg xmlns="http://www.w3.org/2000/svg" fill="none" viewBox="0 0 28 28" focusable="false"><defs><filter id="Rwanda_svg__a"><feColorMatrix values="0 0 0 0 1 0 0 0 0 1 0 0 0 0 1 0 0 0 1 0"/></filter><filter id="Rwanda_svg__c" width="28" height="5.333" x="0" y="18.667" color-interpolation-filters="sRGB" filterUnits="userSpaceOnUse"><feFlood flood-opacity="0" result="BackgroundImageFix"/><feOffset in="SourceAlpha"/><feColorMatrix values="0 0 0 0 0 0 0 0 0 0 0 0 0 0 0 0 0 0 0.06 0"/><feBlend in2="BackgroundImageFix" result="effect_dropShadow_1"/><feBlend in="SourceGraphic" in2="effect_dropShadow_1" result="shape"/></filter></defs><mask id="Rwanda_svg__b" width="28" height="20" x="0" y="4" maskUnits="userSpaceOnUse"><g filter="url(#Rwanda_svg__a)"><rect width="28" height="20" y="4" fill="#FFF" rx="3"/><rect width="28" height="20" y="4" stroke="#969696" stroke-opacity="0" stroke-width="0" rx="3"/></g></mask><path fill="none" d="M0 0H28V28H0z"/><rect width="28" height="20" y="4" fill="#FFF" rx="3"/><rect width="28" height="20" y="4" rx="3"/><g mask="url(#Rwanda_svg__b)"><g filter="url(#Rwanda_svg__c)"><path fill="#2D754D" fill-rule="evenodd" d="M0 24L28 24L28 18.6666L0 18.6666L0 24Z"/><path d="M28 24L28 18.6666L0 18.6666L0 24L28 24Z"/></g><path fill="#25B1EB" fill-rule="evenodd" d="M0 13.3333L28 13.3333L28 4L0 4L0 13.3333Z"/><path d="M28 13.3333L28 4L0 4L0 13.3333L28 13.3333Z"/><path fill="#FECB2F" fill-rule="evenodd" d="M0 18.6667L28 18.6667L28 13.3334L0 13.3334L0 18.6667Z"/><path d="M28 18.6667L28 13.3334L0 13.3334L0 18.6667L28 18.6667Z"/><path fill="#FECB2F" fill-rule="evenodd" d="M21.3334 10L20.3129 11.1303L20.3905 9.60948L18.8697 9.68716L20 8.66667L18.8697 7.64618L20.3905 7.72386L20.3129 6.20299L21.3334 7.33333L22.3538 6.20299L22.2762 7.72386L23.797 7.64618L22.6667 8.66667L23.797 9.68716L22.2762 9.60948L22.3538 11.1303L21.3334 10Z"/><path d="M20.3129 11.1303L20.3905 9.60948L18.8697 9.68716L20 8.66667L18.8697 7.64618L20.3905 7.72386L20.3129 6.20299L21.3334 7.33333L22.3538 6.20299L22.2762 7.72386L23.797 7.64618L22.6667 8.66667L23.797 9.68716L22.2762 9.60948L22.3538 11.1303L21.3334 10L20.3129 11.1303Z"/></g></svg>

<svg xmlns="http://www.w3.org/2000/svg" fill="none" viewBox="0 0 28 28" focusable="false"><defs><filter id="Rwanda_svg__b" width="28" height="5.333" x="0" y="18.667" color-interpolation-filters="sRGB" filterUnits="userSpaceOnUse"><feFlood flood-opacity="0" result="BackgroundImageFix"/><feColorMatrix in="SourceAlpha" result="hardAlpha" values="0 0 0 0 0 0 0 0 0 0 0 0 0 0 0 0 0 0 127 0"/><feOffset/><feGaussianBlur/><feComposite in2="hardAlpha" k2="-1" k3="1" operator="out"/><feColorMatrix values="0 0 0 0 0 0 0 0 0 0 0 0 0 0 0 0 0 0 0.059 0"/><feBlend in2="BackgroundImageFix" result="effect_dropShadow_1"/><feBlend in="SourceGraphic" in2="effect_dropShadow_1" result="shape"/></filter></defs><path fill="none" d="M0 0h28v28H0z"/><rect width="28" height="20" y="4" fill="#FFF" rx="3"/><rect width="28" height="20" y="4" rx="3"/><mask id="Rwanda_svg__a" width="28" height="20" x="0" y="4" mask-type="alpha" maskUnits="userSpaceOnUse"><rect width="28" height="20" y="4" fill="#FFF" rx="3"/><rect width="28" height="20" y="4" stroke="#979797" stroke-opacity="0" stroke-width="0" rx="3"/></mask><g mask="url(#Rwanda_svg__a)"><g filter="url(#Rwanda_svg__b)"><path fill="#2D754D" fill-rule="evenodd" d="M0 24h28v-5.34H0z"/></g><path d="M28 24v-5.34H0V24z"/></g><g mask="url(#Rwanda_svg__a)"><path fill="#25B1EB" fill-rule="evenodd" d="M0 13.33h28V4H0z"/><path d="M28 13.33V4H0v9.33z"/></g><g mask="url(#Rwanda_svg__a)"><path fill="#FECB2F" fill-rule="evenodd" d="M0 18.66h28v-5.33H0z"/><path d="M28 18.66v-5.33H0v5.33z"/></g><g mask="url(#Rwanda_svg__a)"><path fill="#FECB2F" fill-rule="evenodd" d="m21.33 10-1.02 1.13.08-1.53-1.53.08L20 8.66l-1.14-1.02 1.53.08-.08-1.52 1.02 1.13 1.02-1.13-.08 1.52 1.52-.08-1.13 1.02 1.13 1.02-1.52-.08.08 1.53z"/><path d="m20.31 11.13.08-1.53-1.53.08L20 8.66l-1.14-1.02 1.53.08-.08-1.52 1.02 1.13 1.02-1.13-.08 1.52 1.52-.08-1.13 1.02 1.13 1.02-1.52-.08.08 1.53L21.33 10z"/></g></svg>
